X:1
T:Praise the Rock of Our Salvation
T:Praise the Rock of Our Salvation
T:Hubert Platt Main
T:Frances Jane (Fanny) Crosby, 1875
T:Public Domain Courtesy of the Cyber Hymnal™
T:Public Domain Courtesy of the Cyber Hymnal™
C:Hubert Platt Main
Z:Public Domain
Z:Courtesy of the Cyber Hymnal™
%%score ( 1 2 ) ( 3 4 )
L:1/8
M:9/8
K:Ab
V:1 treble 
V:2 treble 
V:3 bass 
V:4 bass 
V:1
 ([CA][DB])[Ec] | [Fd]3- [Fd]2 [Ec] ([DB][Ec])[Fd] | [Ec]3 [CA]3 A2 [EA] | %3
w: 1.~Praise * the|Rock * of our * sal-|va- tion! Praise the|
w: 2.~Praise * the|Rock * of our * sal-|va- tion! Praise the|
w: 3.~Praise * the|Rock * of our * sal-|va- tion! Je- sus’|
w: 4.~Praise * the|Rock * of our * sal-|va- tion! Catch from|
 ([FA]3- [FA][=EG])[FA] (BA)[DF] | [CE]3- [CE]3 [Ec]2 [Ec] | [Ge]3- [Ge]2 [GB] ([GB]A)[GB] | %6
w: might- * * y God * a-|bove! * Come be-|fore * His sac- * red|
w: Fa- * * ther’s bound- * less|love! * Praise the|Lamb, * our ex- * pi-|
w: blood * * a- vails * for|sin; * Je- sus,|at * the door * of|
w: yon- * * der ra- * diant|clime * Strains by|ev- * er- last- * ing|
 [Ac]3 [Ac]3 [Ae]2 [Ae] | [Ge]3- [Ge]2 [Ge] (=dc)[Ad] | [Ge]3- [Ge]3 ||"^Refrain" (ed)[Ec] | %10
w: pre- sence With a|grate- * ful song * of|love. *||
w: a- tion! Praise the|Spir- * it from * a-|bove! *|Hal- * le-|
w: mer- cy, Waits to|let * the wand- * erer|in. *||
w: ag- es, E- choed|back * in tones * sub-|lime. *||
 [Ed]3 [Ed]3 (dc)[EB] | [Ec]3 [Ec]3 A2 [EB] | [Ec]3 [Ec]3 (cB)[_DA] | [DB]3- [DB]3 [DE]2 [DE] | %14
w: ||||
w: lu- jah! Hal- * le-|lu- jah! He is|God, and He * a-|lone. * Wake the|
w: ||||
w: ||||
 [CA]3- [CA]2 [CA] [Ec]2 [_Ge] | [_Ge]3 !fermata![Fd]3 [CA]2 [=DB] | [Ec]3- [Ec]2 [Ac] (BA)[EG] | %17
w: |||
w: song * of a- do-|ra- tion— Come with|joy * be- fore * His|
w: |||
w: |||
 [EA]6 |] %18
w: |
w: throne!|
w: |
w: |
V:2
 x3 | x9 | x6 (CD) x | x6 F2 x | x9 | x7 A x | x9 | x6 A2 x | x6 || E2 x | x6 E2 x | x6 (CE) x | %12
 x6 =D2 x | x9 | x9 | x9 | x6 E2 x | x6 |] %18
V:3
 A,2 A, | A,3- A,2 A, [E,G,]2 [E,G,] | A,3 [A,,A,]3 A,2 [C,A,] | %3
 [D,A,]3- [D,A,]2 [D,A,] [D,A,]2 [D,A,] | [A,,A,]3- [A,,A,]3 A,2 A, | %5
 [E,B,]3- [E,B,]2 [E,D] (DC)[E,E] | [A,E]3 [A,E]3 [A,C]2 [A,C] | %7
 [E,B,]3- [E,B,]2 [E,B,] [B,,B,]2 [B,,B,] | [E,B,]3- [E,B,]3 || (CB,)A, | %10
 [E,B,]3 [E,B,]3 (B,A,)[E,G,] | A,3 A,3 A,2 [E,G,] | A,3 A,3 [F,B,]2 [F,B,] | %13
 [E,G,]3- [E,G,]3 [E,G,]2 [E,G,] | [A,,A,]3- [A,,A,]2 [A,,A,] [A,,A,]2 [A,,A,] | %15
 [C,A,]3 !fermata![D,A,]3 [F,A,]2 [F,A,] | [E,A,]3- [E,A,]2 [E,E] (DC)[E,B,] | [A,,C]6 |] %18
V:4
 A,2 A, | A,3- A,2 A, x3 | A,3 (A,,B,,) x4 | x9 | x6 A,2 A, | x6 E,2 x | x9 | x9 | x6 || A,2 A, | %10
 x6 E,2 x | A,3 A,3 (A,,C,) x | A,3 A,3 x3 | x9 | x9 | x9 | x6 E,2 x | x6 |] %18

